img/icons/shape/heart.svg

<svg fill="none" viewBox="0 0 16 16" xmlns="http://www.w3.org/2000/svg"><path d="m11.5 1c2.53 0 4.5 1.92 4.5 4.62 0 3.25-2.81 6.43-7.37 9.15-0.183 0.115-0.447 0.23-0.63 0.23-0.173 0-0.447-0.115-0.63-0.23-4.56-2.72-7.37-5.9-7.37-9.15 0-2.7 1.97-4.62 4.5-4.62 1.6 0 2.76 0.834 3.5 2.07 0.742-1.25 1.9-2.07 3.5-2.07zm0 1c-1.14 0-2.02 0.544-2.64 1.58l-0.862 1.45-0.857-1.45c-0.61-1.03-1.5-1.58-2.64-1.58-2.01 0-3.5 1.5-3.5 3.62 0 2.7 2.41 5.63 6.9 8.3l0.066 0.037 0.03 0.016c0.0267-0.0118 0.0528-0.0251 0.078-0.04l0.042-0.025c4.47-2.67 6.88-5.59 6.88-8.29 0-2.12-1.49-3.62-3.5-3.62z" fill="#000"/></svg>

<svg xmlns="http://www.w3.org/2000/svg" viewBox="0 0 16 16" fill="none">
  <path fill="#000"
    d="M11.497 1C14.028 1 16 2.916 16 5.62c0 3.247-2.806 6.43-7.37 9.15-.183.115-.447.23-.63.23-.173 0-.447-.115-.63-.23C2.806 12.05 0 8.867 0 5.62 0 2.915 1.972 1 4.503 1 6.1 1 7.268 1.834 8 3.07 8.742 1.824 9.9 1 11.497 1Zm0 1c-1.144 0-2.02.544-2.638 1.582l-.862 1.446L7.14 3.58C6.53 2.551 5.645 2 4.503 2 2.49 2 1 3.504 1 5.62c0 2.703 2.41 5.625 6.902 8.303l.066.037.03.016a.742.742 0 0 0 .078-.04l.042-.025C12.59 11.245 15 8.323 15 5.621 15 3.503 13.51 2 11.497 2Z" />
</svg>
